src/ui/assets/img/apple-store-icon.svg

<?xml version="1.0" encoding="UTF-8"?>
<svg width="135px" height="42px" viewBox="0 0 135 42" version="1.1" xmlns="http://www.w3.org/2000/svg" xmlns:xlink="http://www.w3.org/1999/xlink">
    <!-- Generator: Sketch 52.3 (67297) - http://www.bohemiancoding.com/sketch -->
    <title>Button/Medium/App Store/Default</title>
    <desc>Created with Sketch.</desc>
    <g id="Button/Medium/App-Store/Default" stroke="none" stroke-width="1" fill="none" fill-rule="evenodd">
        <rect id="Rectangle" fill="#000000" fill-rule="nonzero" x="0" y="0" width="135" height="42" rx="4"></rect>
        <path d="M47.2883086,28.7550603 L42.3064826,28.7550603 L41.1101034,32.287669 L39,32.287669 L43.7187051,19.2179273 L45.9110285,19.2179273 L50.6297336,32.287669 L48.4836458,32.287669 L47.2883086,28.7550603 Z M42.8224416,27.1249421 L46.7713602,27.1249421 L44.8246759,21.3917796 L44.7701994,21.3917796 L42.8224416,27.1249421 Z M60.8205326,27.5237386 C60.8205326,30.4848803 59.2356396,32.3873602 56.8439127,32.3873602 C55.6076499,32.4520297 54.443158,31.804506 53.8457762,30.7202261 L53.8005194,30.7202261 L53.8005194,35.4399627 L51.8445839,35.4399627 L51.8445839,22.7587769 L53.7378546,22.7587769 L53.7378546,24.3436699 L53.7738285,24.3436699 C54.3977495,23.2661876 55.5634972,22.6189427 56.8079388,22.6590751 C59.2263462,22.6590856 60.8205326,24.5708169 60.8205326,27.5237386 Z M58.8101205,27.5237386 C58.8101205,25.5945361 57.8131343,24.3261986 56.2919692,24.3261986 C54.7975267,24.3261986 53.7923206,25.6212482 53.7923206,27.5237386 C53.7923206,29.4437003 54.7975267,30.7294985 56.2919692,30.7294985 C57.8131449,30.7294985 58.8101205,29.4704229 58.8101205,27.5237386 Z M71.3083636,27.5237386 C71.3083636,30.4848803 69.7234706,32.3873602 67.3317436,32.3873602 C66.0954809,32.4520297 64.9309889,31.804506 64.3336072,30.7202261 L64.2883504,30.7202261 L64.2883504,35.4399627 L62.3324148,35.4399627 L62.3324148,22.7587769 L64.2256434,22.7587769 L64.2256434,24.3436699 L64.2616173,24.3436699 C64.8855429,23.2661882 66.051295,22.6189471 67.2957382,22.6590856 C69.7142193,22.6590856 71.3083636,24.5708169 71.3083636,27.5237386 Z M69.2979515,27.5237386 C69.2979515,25.5945361 68.3009653,24.3261986 66.7798002,24.3261986 C65.2853576,24.3261986 64.2801516,25.6212482 64.2801516,27.5237386 C64.2801516,29.4437003 65.2853576,30.7294985 66.7798002,30.7294985 C68.3009758,30.7294985 69.297962,29.4704229 69.297962,27.5237386 L69.2979515,27.5237386 Z M78.2399576,28.6461072 C78.3848846,29.9421881 79.6439708,30.7931738 81.3645184,30.7931738 C83.0131393,30.7931738 84.1992357,29.942146 84.1992357,28.7735103 C84.1992357,27.7590529 83.4838731,27.151633 81.7900375,26.7353547 L80.0962019,26.3273068 C77.6962551,25.7476199 76.5820959,24.6252408 76.5820959,22.8039495 C76.5820959,20.5489191 78.5472828,19 81.3377958,19 C84.0995129,19 85.992773,20.5489191 86.0565009,22.8039495 L84.0820416,22.8039495 C83.9638477,21.4996486 82.8856624,20.7123488 81.3100208,20.7123488 C79.7343791,20.7123488 78.6562044,21.5089105 78.6562044,22.6682843 C78.6562044,23.5922913 79.3448444,24.1360043 81.0294286,24.55223 L82.4693946,24.9058014 C85.1509651,25.5399649 86.2651242,26.6171398 86.2651242,28.52885 C86.2651242,30.974022 84.3174085,32.5054699 81.2195703,32.5054699 C78.3211251,32.5054699 76.3641687,31.0099959 76.2377443,28.6460125 L78.2399576,28.6461072 Z M90.4863835,20.5037465 L90.4863835,22.7587769 L92.2984235,22.7587769 L92.2984235,24.307696 L90.4863835,24.307696 L90.4863835,29.5608628 C90.4863835,30.3769481 90.8492061,30.757242 91.6457573,30.757242 C91.860876,30.7534909 92.0756465,30.7383843 92.2891721,30.7119852 L92.2891721,32.251653 C91.9310418,32.3185694 91.5670324,32.3488756 91.202767,32.3421034 C89.2735645,32.3421034 88.5211966,31.6174895 88.5211966,29.7694756 L88.5211966,24.307696 L87.1357071,24.307696 L87.1357071,22.7587769 L88.5211755,22.7587769 L88.5211755,20.5037465 L90.4863835,20.5037465 Z M93.3478654,27.5237386 C93.3478654,24.5256022 95.1136488,22.6416144 97.8671775,22.6416144 C100.629947,22.6416144 102.38751,24.5255601 102.38751,27.5237386 C102.38751,30.5301055 100.639198,32.4058629 97.8671775,32.4058629 C95.0961355,32.4058629 93.3478654,30.530095 93.3478654,27.5237386 Z M100.39457,27.5237386 C100.39457,25.4670804 99.45206,24.25323 97.867167,24.25323 C96.282274,24.25323 95.3407958,25.4763317 95.3407958,27.5237386 C95.3407958,29.5886168 96.282274,30.7932264 97.867167,30.7932264 C99.45206,30.7932264 100.394527,29.5886168 100.394527,27.5237386 L100.39457,27.5237386 Z M104.000115,22.7587769 L105.865601,22.7587769 L105.865601,24.3806542 L105.910857,24.3806542 C106.171006,23.3365782 107.127668,22.6180088 108.202882,22.6590646 C108.428287,22.6582776 108.653069,22.6827568 108.87302,22.7320438 L108.87302,24.561555 C108.588461,24.4746023 108.291617,24.4346795 107.994196,24.4433611 C107.41917,24.4200333 106.862672,24.6492003 106.470822,25.0706898 C106.078973,25.4921792 105.89092,26.0638815 105.95604,26.6356845 L105.95604,32.2876479 L104.000105,32.2876479 L104.000115,22.7587769 Z M117.891047,29.488915 C117.627926,31.2187245 115.943331,32.4058523 113.788003,32.4058523 C111.015982,32.4058523 109.295424,30.5485871 109.295424,27.5689533 C109.295424,24.5800682 111.025233,22.6416039 113.705783,22.6416039 C116.342128,22.6416039 118,24.4526125 118,27.3418063 L118,28.0119437 L111.269862,28.0119437 L111.269862,28.1301376 C111.207026,28.8395449 111.451985,29.5417596 111.94243,30.0581612 C112.432875,30.5745628 113.121536,30.855379 113.833238,30.8291792 C114.782413,30.9181137 115.677298,30.3730725 116.033792,29.4889045 L117.891047,29.488915 Z M111.279095,26.6449569 L116.043033,26.6449464 C116.078528,26.0074965 115.846489,25.3841374 115.402818,24.9250529 C114.959147,24.4659685 114.344073,24.2127834 113.705783,24.2264969 C113.062443,24.2226577 112.444224,24.4759614 111.988535,24.9301066 C111.532846,25.3842519 111.277446,26.0016083 111.279095,26.6449569 Z" id="Combined-Shape" fill="#FFFFFF" fill-rule="nonzero"></path>
        <path d="M41.1819509,10.2976395 C41.9806641,10.2403228 42.7629861,10.5442019 43.3135878,11.1256361 C43.8641896,11.7070703 44.1250348,12.5047732 44.0243275,13.2991824 C44.0243275,15.2290306 42.9813034,16.3383453 41.1819509,16.3383453 L39,16.3383453 L39,10.2976395 L41.1819509,10.2976395 Z M39.9382226,15.4840591 L41.0771494,15.4840591 C41.6479511,15.5181783 42.2037419,15.2932853 42.5901995,14.8718245 C42.9766571,14.4503636 43.1526381,13.8772049 43.0692791,13.3114929 C43.1465733,12.7481287 42.968058,12.1796996 42.5825586,11.7616758 C42.1970592,11.3436519 41.6449177,11.119779 41.0771494,11.1512879 L39.9382226,11.1512879 L39.9382226,15.4840591 Z M45.0841571,14.0569484 C45.0059884,13.2398418 45.3977959,12.449059 46.0952567,12.0162521 C46.7927175,11.5834452 47.6752427,11.5834452 48.3727035,12.0162521 C49.0701643,12.449059 49.4619719,13.2398418 49.3838031,14.0569484 C49.4634591,14.8749329 49.0720092,15.6672495 48.37393,16.1009882 C47.6758507,16.5347269 46.7921095,16.5347269 46.0940303,16.1009882 C45.395951,15.6672495 45.0045011,14.8749329 45.0841571,14.0569484 Z M48.4584175,14.0569484 C48.4584175,13.0687952 48.0145094,12.4909291 47.2354632,12.4909291 C46.4534407,12.4909291 46.0135213,13.0687952 46.0135213,14.0569585 C46.0135213,15.0530284 46.453471,15.6264401 47.2354632,15.6264401 C48.0145297,15.62643 48.4584277,15.0490599 48.4584277,14.0569484 L48.4584175,14.0569484 Z M55.099201,16.3382542 L54.1659189,16.3382542 L53.2237379,12.9807891 L53.1525575,12.9807891 L52.2143248,16.3382542 L51.2899313,16.3382542 L50.0333559,11.7795807 L50.9458843,11.7795807 L51.76251,15.2581162 L51.8297421,15.2581162 L52.7669827,11.7795807 L53.6300766,11.7795807 L54.5673172,15.2581162 L54.6384975,15.2581162 L55.4511648,11.7795807 L56.350836,11.7795807 L55.099201,16.3382542 Z M57.4077095,11.7795807 L58.2737595,11.7795807 L58.2737595,12.5037661 L58.3409916,12.5037661 C58.5747853,11.9705741 59.1210936,11.6444154 59.7013764,11.6915847 C60.1506874,11.6578034 60.5909804,11.8301692 60.8979388,12.1600147 C61.2048972,12.4898602 61.3452103,12.9413911 61.2792608,13.3871177 L61.2792608,16.3382036 L60.3795896,16.3382036 L60.3795896,13.6130403 C60.3795896,12.8804522 60.0612469,12.5161272 59.3958808,12.5161272 C59.09112,12.5019328 58.7953578,12.6215387 58.5861339,12.8435882 C58.3769099,13.0656376 58.2750908,13.3679847 58.3073705,13.6713634 L58.3073705,16.3382542 L57.4076993,16.3382542 L57.4077095,11.7795807 Z M62.7128102,10 L63.6124814,10 L63.6124814,16.338244 L62.7128102,16.338244 L62.7128102,10 Z M64.8631243,14.0569484 C64.7850156,13.2397884 65.176885,12.4489856 65.8743975,12.016172 C66.5719101,11.5833583 67.4544806,11.5833583 68.1519932,12.016172 C68.8495057,12.4489856 69.2413751,13.2397884 69.1632664,14.0569484 C69.2428212,14.8749622 68.8512996,15.6672564 68.1531857,16.100976 C67.4550718,16.5346955 66.5713189,16.5346955 65.873205,16.100976 C65.1750911,15.6672564 64.7835695,14.8749622 64.8631243,14.0569484 Z M68.2373847,14.0569484 C68.2373847,13.0687952 67.7934766,12.4909291 67.0144305,12.4909291 C66.2324079,12.4909291 65.7924885,13.0687952 65.7924885,14.0569585 C65.7924885,15.0530284 66.2324383,15.6264401 67.0144305,15.6264401 C67.7934868,15.62643 68.2373949,15.0490599 68.2373949,14.0569484 L68.2373847,14.0569484 Z M70.1103979,15.0490599 C70.1103979,14.2284758 70.7213891,13.7554112 71.8059309,13.6881791 L73.0407604,13.6169987 L73.0407604,13.2235172 C73.0407604,12.7420397 72.7224177,12.4701652 72.1074782,12.4701652 C71.605247,12.4701652 71.2572415,12.6545498 71.1573804,12.9768509 L70.2863799,12.9768509 C70.3783241,12.1938362 71.1148706,11.6916049 72.1489959,11.6916049 C73.2918811,11.6916049 73.9364833,12.2605622 73.9364833,13.2235172 L73.9364833,16.3382643 L73.0704231,16.3382643 L73.0704231,15.6976205 L72.9992427,15.6976205 C72.7050945,16.1654677 72.1820032,16.4388981 71.6299591,16.4133727 C71.2429631,16.4536268 70.8569985,16.328293 70.567483,16.0683563 C70.2779675,15.8084196 70.1119227,15.4381409 70.1103979,15.0490599 Z M73.0407604,14.6595267 L73.0407604,14.2784064 L71.9275379,14.3495867 C71.2997412,14.3916005 71.0150095,14.6051518 71.0150095,15.007036 C71.0150095,15.417323 71.3709216,15.6560826 71.8603463,15.6560826 C72.1500752,15.6854111 72.4393022,15.5959017 72.6618171,15.4080452 C72.884332,15.2201886 73.0210814,14.9500705 73.0407604,14.6595267 Z M75.1189019,14.0569484 C75.1189019,12.6164844 75.8594068,11.703956 77.0111807,11.703956 C77.5927692,11.6771584 78.1374806,11.9887918 78.4091349,12.5037357 L78.476367,12.5037357 L78.476367,10 L79.3760382,10 L79.3760382,16.338244 L78.5139364,16.338244 L78.5139364,15.618007 L78.442756,15.618007 C78.1505673,16.1286785 77.5991449,16.4350442 77.0111908,16.4133727 C75.8515001,16.4134233 75.1189019,15.5008747 75.1189019,14.0569484 Z M76.0482662,14.0569484 C76.0482662,15.0238517 76.5040394,15.6056762 77.2662902,15.6056762 C78.0245623,15.6056762 78.4932029,15.015459 78.4932029,14.0609068 C78.4932029,13.110809 78.0196422,12.5121789 77.2662902,12.5121789 C76.5089494,12.5121789 76.0482358,13.0979518 76.0482358,14.0569484 L76.0482662,14.0569484 Z M83.0983142,14.0569484 C83.0201455,13.2398418 83.411953,12.449059 84.1094138,12.0162521 C84.8068747,11.5834452 85.6893998,11.5834452 86.3868606,12.0162521 C87.0843214,12.449059 87.476129,13.2398418 87.3979603,14.0569484 C87.4776162,14.8749329 87.0861663,15.6672495 86.3880871,16.1009882 C85.6900078,16.5347269 84.8062666,16.5347269 84.1081874,16.1009882 C83.4101081,15.6672495 83.0186582,14.8749329 83.0983142,14.0569484 Z M86.4725746,14.0569484 C86.4725746,13.0687952 86.0286665,12.4909291 85.2496204,12.4909291 C84.4675978,12.4909291 84.0276785,13.0687952 84.0276785,14.0569585 C84.0276785,15.0530284 84.4676282,15.6264401 85.2496204,15.6264401 C86.0286767,15.62643 86.4725746,15.0490599 86.4725746,14.0569484 Z M88.6051012,11.7795807 L89.4711614,11.7795807 L89.4711614,12.5037661 L89.5383935,12.5037661 C89.7721872,11.9705741 90.3184954,11.6444154 90.8987783,11.6915847 C91.3480892,11.6578034 91.7883822,11.8301692 92.0953406,12.1600147 C92.402299,12.4898602 92.5426121,12.9413911 92.4766626,13.3871177 L92.4766626,16.3382036 L91.5769915,16.3382036 L91.5769915,13.6130403 C91.5769915,12.8804522 91.2586488,12.5161272 90.5932827,12.5161272 C90.2885219,12.5019328 89.9927596,12.6215387 89.7835357,12.8435882 C89.5743117,13.0656376 89.4724927,13.3679847 89.5047724,13.6713634 L89.5047724,16.3382542 L88.6051012,16.3382542 L88.6051012,11.7795807 Z M97.5603155,10.6446123 L97.5603155,11.8003446 L98.5479827,11.8003446 L98.5479827,12.5581511 L97.5603155,12.5581511 L97.5603155,14.9022446 C97.5603155,15.3797638 97.7570613,15.5888606 98.2049177,15.5888606 C98.3195753,15.5884936 98.4341178,15.581561 98.5479827,15.5680967 L98.5479827,16.3174903 C98.3864166,16.3463944 98.2227211,16.3617718 98.0585985,16.3634624 C97.0580843,16.3634624 96.6596522,16.0114986 96.6596522,15.1325913 L96.6596522,12.5581106 L95.935963,12.5581106 L95.935963,11.8003041 L96.6596522,11.8003041 L96.6596522,10.6446123 L97.5603155,10.6446123 Z M99.7768696,10 L100.668634,10 L100.668634,12.5121688 L100.739814,12.5121688 C100.984838,11.9743104 101.540708,11.6477361 102.129811,11.6955431 C102.576571,11.6712331 103.010904,11.8473936 103.314507,12.1760425 C103.61811,12.5046914 103.759362,12.9515978 103.699789,13.3950345 L103.699789,16.3382542 L102.799217,16.3382542 L102.799217,13.6169784 C102.799217,12.8888347 102.46007,12.5200654 101.824407,12.5200654 C101.511408,12.4943951 101.203038,12.6081838 100.981735,12.8310111 C100.760432,13.0538384 100.648763,13.3629829 100.676581,13.6757977 L100.676581,16.3382339 L99.7769101,16.3382339 L99.7768696,10 Z M108.945625,15.1073831 C108.693347,15.9672773 107.861214,16.5228646 106.970301,16.4262401 C106.362432,16.4422865 105.778236,16.190326 105.372714,15.7372098 C104.967192,15.2840935 104.781341,14.6756295 104.864471,14.0732578 C104.783549,13.469212 104.968704,12.859773 105.371967,12.4028287 C105.775231,11.9458845 106.356922,11.686398 106.966342,11.6915948 C108.234783,11.6915948 109,12.5581916 109,13.989696 L109,14.3036247 L105.780947,14.3036247 L105.780947,14.3540412 C105.752461,14.6923178 105.867993,15.0269169 106.099129,15.2755501 C106.330265,15.5241834 106.65556,15.6637806 106.995013,15.6600106 C107.435167,15.7128514 107.863627,15.49452 108.079565,15.1073527 L108.945625,15.1073831 Z M105.780927,13.6382485 L108.083493,13.6382485 C108.106426,13.3288658 107.997642,13.0241848 107.783947,12.7992888 C107.570252,12.5743928 107.271522,12.4501972 106.961372,12.457308 C106.64702,12.4533586 106.344395,12.576527 106.122146,12.7988735 C105.899897,13.02122 105.776861,13.3238984 105.780947,13.6382485 L105.780927,13.6382485 Z" id="Combined-Shape" fill="#FFFFFF" fill-rule="nonzero"></path>
        <g id="Icon/apple-24-white" transform="translate(10.000000, 9.000000)">
            <rect id="Rectangle" fill-opacity="0" fill="#D8D8D8" fill-rule="nonzero" x="0" y="0" width="24" height="24"></rect>
            <path d="M18.3085984,12.7631457 C18.3108723,14.8785284 19.5777001,16.7875837 21.5259875,17.6116137 C21.1512886,18.8288374 20.5864814,19.9791592 19.8524875,21.0199693 C18.8667623,22.4945123 17.8332376,23.9350876 16.1928457,23.9617151 C14.5989307,23.9985043 14.0632613,23.0236902 12.2350881,23.0236902 C10.3897877,23.0236902 9.81883903,23.9350986 8.29011519,23.9985043 C6.72789755,24.0563662 5.5339795,22.4247143 4.51241294,20.964003 C2.47059134,17.9809603 0.880666082,12.5573114 3.01219024,8.86690906 C4.01312178,7.06825698 5.88461331,5.92690287 7.94194053,5.86043501 C9.5055689,5.82826376 10.9576284,6.9164322 11.9189855,6.9164322 C12.8620912,6.9164322 14.6563078,5.61471458 16.5070527,5.80897645 C18.2661795,5.86401513 19.8963663,6.74531816 20.9058396,8.18702559 C19.3129088,9.16634314 18.3326877,10.89341 18.3085984,12.7631457 Z M15.2979803,3.84712558 C14.430234,4.92640335 13.1154129,5.54806507 11.730631,5.53380704 C11.6425647,4.18056768 12.0960306,2.84782101 12.9911509,1.82911004 C13.8976441,0.796598935 15.1598697,0.143520225 16.526329,-2.93098879e-14 C16.6330319,1.39335161 16.1923901,2.77341922 15.2979803,3.84712558 Z" id="Combined-Shape" fill="#FFFFFF" fill-rule="evenodd"></path>
        </g>
    </g>
</svg>

<svg height="42" width="135" xmlns="http://www.w3.org/2000/svg"><g fill="none" fill-rule="evenodd"><g fill-rule="nonzero"><rect fill="#000" height="42" rx="4" width="135"/><path d="M47.288 28.755h-4.982l-1.196 3.533H39l4.719-13.07h2.192l4.719 13.07h-2.146zm-4.466-1.63h3.95l-1.947-5.733h-.055zm17.999.399c0 2.96-1.585 4.863-3.977 4.863a3.23 3.23 0 0 1-2.998-1.667H53.8v4.72h-1.956V22.759h1.893v1.585h.036a3.38 3.38 0 0 1 3.034-1.685c2.418 0 4.013 1.912 4.013 4.865zm-2.01 0c0-1.93-.998-3.198-2.519-3.198-1.494 0-2.5 1.295-2.5 3.198 0 1.92 1.006 3.205 2.5 3.205 1.521 0 2.518-1.259 2.518-3.205zm12.497 0c0 2.96-1.585 4.863-3.976 4.863a3.23 3.23 0 0 1-2.998-1.667h-.046v4.72h-1.956V22.759h1.894v1.585h.036a3.38 3.38 0 0 1 3.034-1.685c2.418 0 4.012 1.912 4.012 4.865zm-2.01 0c0-1.93-.997-3.198-2.518-3.198-1.495 0-2.5 1.295-2.5 3.198 0 1.92 1.005 3.205 2.5 3.205 1.521 0 2.518-1.259 2.518-3.205zm8.942 1.122c.145 1.296 1.404 2.147 3.125 2.147 1.648 0 2.834-.85 2.834-2.02 0-1.014-.715-1.621-2.409-2.038l-1.694-.408c-2.4-.58-3.514-1.702-3.514-3.523 0-2.255 1.965-3.804 4.756-3.804 2.762 0 4.655 1.549 4.719 3.804h-1.975c-.118-1.304-1.196-2.092-2.772-2.092-1.576 0-2.654.797-2.654 1.956 0 .924.689 1.468 2.373 1.884l1.44.354c2.682.634 3.796 1.711 3.796 3.623 0 2.445-1.948 3.976-5.045 3.976-2.899 0-4.856-1.495-4.982-3.859zm12.246-8.142v2.255h1.812v1.549h-1.812v5.253c0 .816.363 1.196 1.16 1.196.215-.004.43-.019.643-.045v1.54a5.371 5.371 0 0 1-1.086.09c-1.93 0-2.682-.725-2.682-2.573v-5.461h-1.385v-1.55h1.385v-2.254zm2.862 7.02c0-2.998 1.766-4.882 4.52-4.882 2.762 0 4.52 1.884 4.52 4.882 0 3.006-1.749 4.882-4.52 4.882-2.772 0-4.52-1.876-4.52-4.882zm7.047 0c0-2.057-.943-3.27-2.528-3.27s-2.526 1.222-2.526 3.27c0 2.065.941 3.27 2.526 3.27s2.528-1.205 2.528-3.27zM104 22.759h1.866v1.622h.045a2.273 2.273 0 0 1 2.292-1.722c.225 0 .45.024.67.073v1.83a2.734 2.734 0 0 0-.879-.119 1.97 1.97 0 0 0-2.038 2.193v5.652H104zm13.891 6.73c-.263 1.73-1.948 2.917-4.103 2.917-2.772 0-4.493-1.857-4.493-4.837 0-2.989 1.73-4.927 4.41-4.927 2.637 0 4.295 1.81 4.295 4.7v.67h-6.73v.118a2.482 2.482 0 0 0 2.563 2.7 2.156 2.156 0 0 0 2.2-1.341zm-6.612-2.844h4.764a2.292 2.292 0 0 0-2.337-2.419 2.412 2.412 0 0 0-2.427 2.419zM41.182 10.298a2.672 2.672 0 0 1 2.842 3.001c0 1.93-1.043 3.04-2.842 3.04H39v-6.041zm-1.244 5.186h1.14a1.9 1.9 0 0 0 1.991-2.173 1.904 1.904 0 0 0-1.992-2.16h-1.139zm5.146-1.427a2.16 2.16 0 1 1 4.3 0 2.16 2.16 0 1 1-4.3 0zm3.374 0c0-.988-.443-1.566-1.223-1.566-.782 0-1.221.578-1.221 1.566 0 .996.44 1.57 1.221 1.57.78 0 1.223-.578 1.223-1.57zm6.641 2.281h-.933l-.942-3.357h-.071l-.939 3.357h-.924l-1.257-4.558h.913l.817 3.478h.067l.937-3.478h.863l.937 3.478h.071l.813-3.478h.9zm2.309-4.558h.866v.724h.067c.234-.533.78-.86 1.36-.812a1.483 1.483 0 0 1 1.578 1.695v2.951h-.9v-2.725c0-.733-.318-1.097-.983-1.097a1.046 1.046 0 0 0-1.089 1.155v2.667h-.9zM62.713 10h.9v6.338h-.9zm2.15 4.057a2.16 2.16 0 1 1 4.3 0 2.16 2.16 0 1 1-4.3 0zm3.374 0c0-.988-.444-1.566-1.223-1.566-.782 0-1.222.578-1.222 1.566 0 .996.44 1.57 1.222 1.57.78 0 1.223-.578 1.223-1.57zm1.873.992c0-.82.611-1.294 1.696-1.36l1.235-.072v-.393c0-.482-.319-.754-.934-.754-.502 0-.85.185-.95.507h-.87c.091-.783.828-1.285 1.862-1.285 1.143 0 1.787.569 1.787 1.532v3.114h-.866v-.64H73a1.534 1.534 0 0 1-1.37.715 1.377 1.377 0 0 1-1.52-1.364zm2.93-.39v-.38l-1.112.07c-.628.043-.913.256-.913.658 0 .41.356.65.845.65a1.075 1.075 0 0 0 1.18-.997zm2.079-.602c0-1.44.74-2.353 1.892-2.353a1.502 1.502 0 0 1 1.398.8h.067V10h.9v6.338h-.862v-.72h-.071c-.292.51-.844.817-1.432.795-1.16 0-1.892-.912-1.892-2.356zm.93 0c0 .967.455 1.549 1.217 1.549.759 0 1.227-.59 1.227-1.545 0-.95-.473-1.549-1.227-1.549-.757 0-1.218.586-1.218 1.545zm7.05 0a2.16 2.16 0 1 1 4.299 0 2.16 2.16 0 1 1-4.3 0zm3.374 0c0-.988-.444-1.566-1.223-1.566-.782 0-1.222.578-1.222 1.566 0 .996.44 1.57 1.222 1.57.779 0 1.223-.578 1.223-1.57zm2.132-2.277h.866v.724h.067c.234-.533.78-.86 1.36-.812a1.483 1.483 0 0 1 1.579 1.695v2.951h-.9v-2.725c0-.733-.318-1.097-.984-1.097a1.046 1.046 0 0 0-1.088 1.155v2.667h-.9zm8.955-1.135V11.8h.988v.758h-.988v2.344c0 .478.197.687.645.687.115 0 .23-.007.343-.02v.748a2.952 2.952 0 0 1-.49.046c-1 0-1.398-.352-1.398-1.23v-2.575h-.724V11.8h.724v-1.155zM99.777 10h.892v2.512h.07a1.404 1.404 0 0 1 1.39-.816 1.502 1.502 0 0 1 1.57 1.699v2.943h-.9v-2.721c0-.728-.339-1.097-.975-1.097a1.065 1.065 0 0 0-1.147 1.156v2.662h-.9zm9.169 5.107a1.85 1.85 0 0 1-1.976 1.32 2.07 2.07 0 0 1-2.106-2.354 2.103 2.103 0 0 1 2.102-2.381c1.269 0 2.034.866 2.034 2.298v.314h-3.22v.05a1.205 1.205 0 0 0 1.215 1.306c.44.053.869-.165 1.085-.553zm-3.165-1.469h2.302a1.1 1.1 0 0 0-1.122-1.18 1.166 1.166 0 0 0-1.18 1.18z" fill="#fff"/></g><path d="M10 9h24v24H10z"/><path d="M28.309 21.763a5.27 5.27 0 0 0 3.217 4.849 12.082 12.082 0 0 1-1.674 3.408c-.985 1.475-2.019 2.915-3.66 2.942-1.593.037-2.129-.938-3.957-.938-1.845 0-2.416.911-3.945.975-1.562.057-2.756-1.574-3.778-3.035-2.041-2.983-3.631-8.407-1.5-12.097a5.858 5.858 0 0 1 4.93-3.007c1.564-.032 3.016 1.056 3.977 1.056.943 0 2.737-1.301 4.588-1.107a5.58 5.58 0 0 1 4.399 2.378 5.454 5.454 0 0 0-2.597 4.576zm-3.011-8.916a4.518 4.518 0 0 1-3.567 1.687 5.11 5.11 0 0 1 1.26-3.705A5.464 5.464 0 0 1 26.526 9a5.37 5.37 0 0 1-1.228 3.847z" fill="#fff"/></g></svg>
